packages/kaspersky-hexa-ui-icons/src/iconsSVGs/24/Vpn.svg

<svg width="24" height="24" viewBox="0 0 24 24" fill="none" xmlns="http://www.w3.org/2000/svg">
<path d="M8.84175 15.5939L8.84338 15.5915C8.84705 15.5861 8.85523 15.5742 8.86798 15.5567C8.89353 15.5216 8.93696 15.4646 8.99849 15.3929C9.12218 15.2488 9.31489 15.0501 9.57786 14.8501C10.0982 14.4544 10.8909 14.0541 12 14.0541C13.1091 14.0541 13.9018 14.4544 14.4221 14.8501C14.6851 15.0501 14.8778 15.2488 15.0015 15.3929C15.063 15.4646 15.1065 15.5216 15.132 15.5567C15.1448 15.5742 15.153 15.5861 15.1566 15.5915L15.1583 15.5939C15.4543 16.0558 16.0681 16.1931 16.5331 15.9001C17.0004 15.6057 17.1405 14.9882 16.8461 14.521L16.0231 15.0395C16.8461 14.521 16.8463 14.5214 16.8461 14.521L16.845 14.5193L16.8438 14.5174L16.841 14.513L16.8339 14.5021C16.8285 14.4938 16.8218 14.4837 16.8137 14.4717C16.7976 14.4478 16.776 14.4168 16.749 14.3796C16.6949 14.3053 16.6185 14.206 16.5191 14.0902C16.3209 13.8593 16.0273 13.5581 15.6327 13.2581C14.838 12.6538 13.6307 12.0541 12 12.0541C10.3693 12.0541 9.16196 12.6538 8.36727 13.2581C7.97271 13.5581 7.67914 13.8593 7.48093 14.0902C7.38151 14.206 7.30509 14.3053 7.25102 14.3796C7.22395 14.4168 7.20239 14.4478 7.18626 14.4717C7.17819 14.4837 7.17147 14.4938 7.16609 14.5021L7.15902 14.513L7.15623 14.5174L7.15503 14.5193L7.15447 14.5202C7.1542 14.5206 7.15394 14.521 8 15.0541L7.15447 14.5202C6.86005 14.9874 6.99964 15.6057 7.46691 15.9001C7.9319 16.1931 8.54565 16.0558 8.84175 15.5939Z" fill="black"/>
<path fill-rule="evenodd" clip-rule="evenodd" d="M14.5331 17.9001C14.0707 18.1915 13.4613 18.0573 13.1633 17.6018L13.1618 17.5996C13.1561 17.5919 13.1427 17.574 13.1214 17.5492C13.0781 17.4988 13.007 17.4251 12.9084 17.3501C12.7168 17.2044 12.4241 17.0541 12 17.0541C11.5759 17.0541 11.2832 17.2044 11.0916 17.3501C10.993 17.4251 10.9219 17.4988 10.8786 17.5492C10.8573 17.574 10.8439 17.5919 10.8382 17.5996L10.8367 17.6018C10.5387 18.0573 9.92926 18.1915 9.46691 17.9001C8.99964 17.6057 8.85952 16.9882 9.15394 16.521L9.99982 17.054C9.15394 16.521 9.15368 16.5214 9.15394 16.521L9.155 16.5193L9.15612 16.5175L9.15856 16.5137L9.16424 16.5049L9.17885 16.4829C9.19003 16.4664 9.20416 16.4461 9.22127 16.4226C9.25544 16.3756 9.3019 16.3154 9.36107 16.2465C9.47881 16.1093 9.65081 15.9331 9.88098 15.7581C10.3469 15.4038 11.0542 15.0541 12 15.0541C12.9458 15.0541 13.6531 15.4038 14.119 15.7581C14.3492 15.9331 14.5212 16.1093 14.6389 16.2465C14.6981 16.3154 14.7446 16.3756 14.7787 16.4226C14.7958 16.4461 14.81 16.4664 14.8211 16.4829L14.8358 16.5049L14.8414 16.5137L14.8439 16.5175L14.845 16.5193L14.8455 16.5202C14.8458 16.5206 14.8461 16.521 14.0076 17.0493L14.8455 16.5202C15.14 16.9874 15.0004 17.6057 14.5331 17.9001ZM10.8395 17.5975L10.8451 17.5887L10.8441 17.5902L10.8424 17.593L10.8395 17.5975ZM10.8367 17.6018L10.8389 17.5984L10.836 17.6027L10.8354 17.6036L10.8367 17.6018Z" fill="black"/>
<path fill-rule="evenodd" clip-rule="evenodd" d="M7 8V7C7 4.23858 9.23858 2 12 2C14.7614 2 17 4.23858 17 7V8C18.6569 8 20 9.34315 20 11V19C20 20.6569 18.6569 22 17 22H7C5.34315 22 4 20.6569 4 19V11C4 9.34315 5.34315 8 7 8ZM15 7V8H9V7C9 5.34315 10.3431 4 12 4C13.6569 4 15 5.34315 15 7ZM7 10C6.44772 10 6 10.4477 6 11V19C6 19.5523 6.44772 20 7 20H17C17.5523 20 18 19.5523 18 19V11C18 10.4477 17.5523 10 17 10H7Z" fill="black"/>
</svg>

<svg xmlns="http://www.w3.org/2000/svg" width="24" height="24" fill="none" viewBox="0 0 24 24"><path fill="#000" fill-rule="evenodd" d="M7 8V7c0-2.7614 2.2386-5 5-5s5 2.2386 5 5v1c1.6569 0 3 1.3431 3 3v8c0 1.6569-1.3431 3-3 3H7c-1.6569 0-3-1.3431-3-3v-8c0-1.6569 1.3431-3 3-3m8-1v1H9V7c0-1.6569 1.3431-3 3-3s3 1.3431 3 3m-8 3c-.5523 0-1 .4477-1 1v8c0 .5523.4477 1 1 1h10c.5523 0 1-.4477 1-1v-8c0-.5523-.4477-1-1-1zm1.8418 5.5939.0016-.0024a1 1 0 0 1 .0246-.0348 2.7 2.7 0 0 1 .1305-.1638 3.8 3.8 0 0 1 .5794-.5428c.5203-.3957 1.313-.796 2.4221-.796s1.9018.4003 2.4221.796c.263.2.4557.3987.5794.5428.0615.0717.105.1287.1305.1638.0128.0175.021.0294.0246.0348l.0017.0024c.2961.4619.9098.5992 1.3748.3062.4673-.2944.6074-.9119.313-1.3791l-.0011-.0017-.0012-.0019-.0028-.0044-.0071-.0109-.0202-.0304a3 3 0 0 0-.0647-.0921 4.7 4.7 0 0 0-.2299-.2894 5.8 5.8 0 0 0-.8864-.8321c-.7947-.6043-2.002-1.204-3.6327-1.204s-2.838.5997-3.6327 1.204c-.3946.3-.6882.6012-.8864.8321a4.6 4.6 0 0 0-.2299.2894 3 3 0 0 0-.0849.1225l-.007.0109-.0029.0044-.0012.0019-.0005.0009c-.2944.4672-.1549 1.0855.3124 1.3799.465.293 1.0788.1557 1.3749-.3062m4.3215 2.0079c.298.4555.9074.5897 1.3698.2983.4673-.2944.6069-.9127.3124-1.3799l-.0005-.0009-.0011-.0018-.0025-.0038-.0056-.0088-.0147-.022a2 2 0 0 0-.0424-.0603 2.8 2.8 0 0 0-.1398-.1761 3.4 3.4 0 0 0-.5199-.4884c-.4659-.3543-1.1732-.704-2.119-.704s-1.6531.3497-2.119.704a3.4 3.4 0 0 0-.52.4884 2.8 2.8 0 0 0-.1397.1761 2 2 0 0 0-.0424.0603l-.0147.022-.0056.0088-.0025.0038-.0011.0018-.001.0017c-.2945.4672-.1544 1.0847.3129 1.3791.4624.2914 1.0718.1572 1.3698-.2983l.0015-.0022a1 1 0 0 1 .0404-.0504 1.4 1.4 0 0 1 .213-.1991c.1916-.1457.4843-.296.9084-.296s.7168.1503.9084.296c.0986.075.1697.1487.213.1991a1 1 0 0 1 .0404.0504zm-2.3266 0-.0013.0018.0006-.0009.0029-.0043zm4.0088-1.0816-.8379.5291c.8373-.5276.8382-.5287.8379-.5291m-4.0004 1.0685-.0028.0043.0018-.0028z"/></svg>
